X: 1951
T: Up In My Balloon
C:Lincke, Paul, 1866-1946
B: australian traditional tunes wiki
M:4/4
L:1/8
R: Barn Dance
Q: 1/4=100
K:G
V:1 
D>D|"G"G>F G>BD2D2|G>F G>AB2-B2|"C"c>B c>e "G"d>BG2|"A7"A>B A>G "D7"E2 (3DEF|
"G"G>F G>BD2D2|G>F G>AB2-B2|"C"c>B c>e "G"d>B G>A|B>G "D7"A>F "G"G2G>G||
"C"e2e2"G"d2d>B|"D7"c>B c>d"G"B2B>B|"D7"c>B c>e "G"d>B G>G|"A7"A>B A>G"D7"E2D>D|
"G"G>F G>BD2 (3DEF|G>F G>AB2-B2|"C"c>B c>e "G"d>B G>A|B>G "D7"A>A"G"G2||
% abcbook-tune_id 6342d5be1c83c929188f461f


% abcbook-boost 0
% abcbook-tablature 
% abcbook-transpose 
% abcbook-lastupdated 1665324489890
% abcbook-soundfonts 
% abcbook-repeats 1
% NFF Book 2008

